branches/nugui/src/gui/icons/vector_normalise.svg

<?xml version="1.0" encoding="UTF-8" standalone="no"?>
<!-- Created with Inkscape (http://www.inkscape.org/) -->

<svg
   xmlns:dc="http://purl.org/dc/elements/1.1/"
   xmlns:cc="http://creativecommons.org/ns#"
   xmlns:rdf="http://www.w3.org/1999/02/22-rdf-syntax-ns#"
   xmlns:svg="http://www.w3.org/2000/svg"
   xmlns="http://www.w3.org/2000/svg"
   xmlns:xlink="http://www.w3.org/1999/xlink"
   xmlns:inkscape="http://www.inkscape.org/namespaces/inkscape"
   version="1.0"
   width="100"
   height="100"
   id="svg2">
  <metadata
     id="metadata2566">
    <rdf:RDF>
      <cc:Work
         rdf:about="">
        <dc:format>image/svg+xml</dc:format>
        <dc:type
           rdf:resource="http://purl.org/dc/dcmitype/StillImage" />
      </cc:Work>
    </rdf:RDF>
  </metadata>
  <defs
     id="defs4">
    <linearGradient
       id="linearGradient3189">
      <stop
         id="stop2575"
         style="stop-color:#000000;stop-opacity:1"
         offset="0" />
      <stop
         id="stop3193"
         style="stop-color:#000000;stop-opacity:0"
         offset="1" />
    </linearGradient>
    <radialGradient
       cx="50.059151"
       cy="48.853989"
       r="42.138134"
       fx="50.059151"
       fy="48.853989"
       id="radialGradient2567"
       xlink:href="#linearGradient3189"
       gradientUnits="userSpaceOnUse"
       gradientTransform="matrix(0,-1.809554,2.0282216,0,8.9085149,148.80229)" />
    <linearGradient
       id="linearGradient3197">
      <stop
         id="stop3199"
         style="stop-color:#e4e1e1;stop-opacity:1"
         offset="0" />
      <stop
         id="stop3201"
         style="stop-color:#e4af00;stop-opacity:1"
         offset="1" />
    </linearGradient>
    <radialGradient
       cx="50.059151"
       cy="48.853989"
       r="42.138134"
       fx="50.059151"
       fy="48.853989"
       id="radialGradient2565"
       xlink:href="#linearGradient3197"
       gradientUnits="userSpaceOnUse"
       gradientTransform="matrix(0,-1.809554,2.0282216,0,8.9085149,148.80229)" />
  </defs>
  <path
     d="m 80.950673,75.095454 0,21.219443 -73.6049566,0 73.6049566,-21.219443 z"
     inkscape:connector-curvature="0"
     id="rect3339"
     style="fill:#ffffff;fill-opacity:1;fill-rule:evenodd;stroke:none" />
  <g
     transform="matrix(0.63181651,0,0,0.63181651,-11.673187,-4.8229921)"
     id="g2557">
    <path
       d="M 43.094891,58.217554 24.666396,60.76013 51.44113,11.077996 78.21586,60.76013 60.321526,58.217554 c 0,1.962365 -0.194359,102.333876 0,104.245316 l -17.226635,0 0,-104.245316 z"
       inkscape:connector-curvature="0"
       id="path3242"
       style="fill:none;stroke:#000000;stroke-width:5.96735048;stroke-linecap:round;stroke-linejoin:round;stroke-miterlimit:4;stroke-opacity:1;stroke-dasharray:none;stroke-dashoffset:0" />
    <path
       d="M 43.094891,58.217549 24.666396,60.760131 51.44113,11.077995 78.21586,60.760131 60.321526,58.217549 c 0,1.962375 -0.194359,102.478481 0,104.389921 l -17.226635,0 0,-104.389921 z"
       inkscape:connector-curvature="0"
       id="path3176"
       style="fill:url(#radialGradient2565);fill-opacity:1;fill-rule:evenodd;stroke:url(#radialGradient2567);stroke-width:4.27327442;stroke-linecap:round;stroke-linejoin:round;stroke-miterlimit:4;stroke-opacity:1;stroke-dashoffset:0" />
  </g>
  <path
     d="m 57.87253,76.829215 -5.51719,0 0,-35.984331 c -2.574703,2.554287 -6.252826,3.831411 -11.034378,3.831379 l 0,-5.149376 c 5.823688,3.9e-5 10.002443,-2.104666 12.536282,-6.314118 l 4.015286,0 0,43.616446 m 7.283878,-6.773881 c 1.021692,9e-6 1.890137,0.347384 2.605342,1.042137 0.715177,0.694763 1.072773,1.563208 1.072785,2.605341 -1.2e-5,1.021702 -0.357608,1.879928 -1.072785,2.574688 -0.715205,0.694756 -1.58365,1.042132 -2.605342,1.042132 -1.042143,0 -1.910589,-0.347376 -2.605341,-1.042132 -0.69476,-0.69476 -1.042139,-1.552986 -1.042132,-2.574688 -7e-6,-1.042133 0.347372,-1.910578 1.042132,-2.605341 0.694752,-0.694753 1.563198,-1.042128 2.605341,-1.042137 m 32.817279,-15.14162 c -3.1e-5,7.764947 -1.215853,13.506904 -3.647473,17.225892 -2.411242,3.698563 -6.028062,5.537622 -10.850472,5.51719 -4.863315,0 -8.500568,-1.859497 -10.911776,-5.578492 -2.390785,-3.739421 -3.586175,-9.460945 -3.58617,-17.16459 -5e-6,-7.376657 1.205601,-12.914275 3.61682,-16.61287 2.41121,-3.69852 6.038248,-5.547796 10.881126,-5.547838 4.82241,4.2e-5 8.43923,1.849318 10.850472,5.547838 2.43162,3.698595 3.647442,9.236213 3.647473,16.61287 M 83.475742,72.936533 c 2.922044,4e-6 5.12892,-1.338422 6.620626,-4.015285 1.49166,-2.676849 2.237502,-7.264286 2.237526,-13.762325 -2.4e-5,-6.130182 -0.705,-10.605232 -2.114921,-13.42516 -1.389536,-2.840295 -3.657713,-4.260456 -6.804534,-4.260499 -2.92208,4.3e-5 -5.118739,1.481505 -6.589974,4.444405 -1.45083,2.942532 -2.176234,7.356279 -2.176226,13.241254 -8e-6,5.925888 0.735617,10.370283 2.206875,13.333206 1.471239,2.962941 3.67811,4.444408 6.620628,4.444404"
     inkscape:connector-curvature="0"
     id="text2403"
     style="font-size:16px;font-style:normal;font-weight:normal;fill:#000000;fill-opacity:1;stroke:none;font-family:Bitstream Vera Sans" />
</svg>

<?xml version="1.0" encoding="UTF-8" standalone="no"?>
<!-- Created with Inkscape (http://www.inkscape.org/) -->
<svg
   xmlns:svg="http://www.w3.org/2000/svg"
   xmlns="http://www.w3.org/2000/svg"
   xmlns:xlink="http://www.w3.org/1999/xlink"
   version="1.0"
   width="100"
   height="100"
   id="svg2">
  <defs
     id="defs4">
    <linearGradient
       id="linearGradient3189">
      <stop
         id="stop2575"
         style="stop-color:#000000;stop-opacity:1"
         offset="0" />
      <stop
         id="stop3193"
         style="stop-color:#000000;stop-opacity:0"
         offset="1" />
    </linearGradient>
    <radialGradient
       cx="50.059151"
       cy="48.853989"
       r="42.138134"
       fx="50.059151"
       fy="48.853989"
       id="radialGradient2567"
       xlink:href="#linearGradient3189"
       gradientUnits="userSpaceOnUse"
       gradientTransform="matrix(0,-1.809554,2.0282216,0,8.9085149,148.80229)" />
    <linearGradient
       id="linearGradient3197">
      <stop
         id="stop3199"
         style="stop-color:#e4e1e1;stop-opacity:1"
         offset="0" />
      <stop
         id="stop3201"
         style="stop-color:#e4af00;stop-opacity:1"
         offset="1" />
    </linearGradient>
    <radialGradient
       cx="50.059151"
       cy="48.853989"
       r="42.138134"
       fx="50.059151"
       fy="48.853989"
       id="radialGradient2565"
       xlink:href="#linearGradient3197"
       gradientUnits="userSpaceOnUse"
       gradientTransform="matrix(0,-1.809554,2.0282216,0,8.9085149,148.80229)" />
  </defs>
  <path
     d="M 80.950673,75.095454 L 80.950673,96.314897 L 7.3457164,96.314897 L 80.950673,75.095454 z"
     id="rect3339"
     style="fill:#ffffff;fill-opacity:1;fill-rule:evenodd;stroke:none" />
  <g
     transform="matrix(0.6318165,0,0,0.6318165,-11.673187,-4.8229921)"
     id="g2557">
    <path
       d="M 43.094891,58.217554 L 24.666396,60.76013 L 51.44113,11.077996 L 78.21586,60.76013 L 60.321526,58.217554 C 60.321526,60.179919 60.127167,160.55143 60.321526,162.46287 L 43.094891,162.46287 L 43.094891,58.217554 L 43.094891,58.217554 z"
       id="path3242"
       style="fill:none;stroke:#000000;stroke-width:5.96735048;stroke-linecap:round;stroke-linejoin:round;stroke-miterlimit:4;stroke-dasharray:none;stroke-dashoffset:0;stroke-opacity:1" />
    <path
       d="M 43.094891,58.217549 L 24.666396,60.760131 L 51.44113,11.077995 L 78.21586,60.760131 L 60.321526,58.217549 C 60.321526,60.179924 60.127167,160.69603 60.321526,162.60747 L 43.094891,162.60747 L 43.094891,58.217549 L 43.094891,58.217549 z"
       id="path3176"
       style="fill:url(#radialGradient2565);fill-opacity:1;fill-rule:evenodd;stroke:url(#radialGradient2567);stroke-width:4.27327442;stroke-linecap:round;stroke-linejoin:round;stroke-miterlimit:4;stroke-dashoffset:0;stroke-opacity:1" />
  </g>
  <path
     d="M 57.87253,76.829215 L 52.35534,76.829215 L 52.35534,40.844884 C 49.780637,43.399171 46.102514,44.676295 41.320962,44.676263 L 41.320962,39.526887 C 47.14465,39.526926 51.323405,37.422221 53.857244,33.212769 L 57.87253,33.212769 L 57.87253,76.829215 M 65.156408,70.055334 C 66.1781,70.055343 67.046545,70.402718 67.76175,71.097471 C 68.476927,71.792234 68.834523,72.660679 68.834535,73.702812 C 68.834523,74.724514 68.476927,75.58274 67.76175,76.2775 C 67.046545,76.972256 66.1781,77.319632 65.156408,77.319632 C 64.114265,77.319632 63.245819,76.972256 62.551067,76.2775 C 61.856307,75.58274 61.508928,74.724514 61.508935,73.702812 C 61.508928,72.660679 61.856307,71.792234 62.551067,71.097471 C 63.245819,70.402718 64.114265,70.055343 65.156408,70.055334 M 97.973687,54.913714 C 97.973656,62.678661 96.757834,68.420618 94.326214,72.139606 C 91.914972,75.838169 88.298152,77.677228 83.475742,77.656796 C 78.612427,77.656796 74.975174,75.797299 72.563966,72.078304 C 70.173181,68.338883 68.977791,62.617359 68.977796,54.913714 C 68.977791,47.537057 70.183397,41.999439 72.594616,38.300844 C 75.005826,34.602324 78.632864,32.753048 83.475742,32.753006 C 88.298152,32.753048 91.914972,34.602324 94.326214,38.300844 C 96.757834,41.999439 97.973656,47.537057 97.973687,54.913714 M 83.475742,72.936533 C 86.397786,72.936537 88.604662,71.598111 90.096368,68.921248 C 91.588028,66.244399 92.33387,61.656962 92.333894,55.158923 C 92.33387,49.028741 91.628894,44.553691 90.218973,41.733763 C 88.829437,38.893468 86.56126,37.473307 83.414439,37.473264 C 80.492359,37.473307 78.2957,38.954769 76.824465,41.917669 C 75.373635,44.860201 74.648231,49.273948 74.648239,55.158923 C 74.648231,61.084811 75.383856,65.529206 76.855114,68.492129 C 78.326353,71.45507 80.533224,72.936537 83.475742,72.936533"
     id="text2403"
     style="font-size:16px;font-style:normal;font-weight:normal;fill:#000000;fill-opacity:1;stroke:none;font-family:Bitstream Vera Sans" />
</svg>
